.local/share/icons/Gruvbox-Plus-Dark/actions/16/contact-new.svg

<svg xmlns="http://www.w3.org/2000/svg" width="16" height="16" viewBox="0 0 16 16">
 <defs>
  <style id="current-color-scheme" type="text/css">
   .ColorScheme-Text { color:#ebdbb2; } .ColorScheme-Highlight { color:#458588; }
  </style>
 </defs>
 <path style="fill:currentColor" class="ColorScheme-Text" d="M 3 1.0097656 C 1.892 1.0097656 1 1.9017656 1 3.0097656 L 1 13.009766 C 1 14.117766 1.892 15.009766 3 15.009766 L 13 15.009766 C 14.108 15.009766 15 14.117766 15 13.009766 L 15 3.0097656 C 15 1.9017656 14.108 1.0097656 13 1.0097656 L 3 1.0097656 z M 8 4.0097656 C 9.1046 4.0097656 10 4.9052356 10 6.0097656 C 10 7.1142956 9.10458 8.0097656 8 8.0097656 C 6.89542 8.0097656 6 7.1142956 6 6.0097656 C 6 4.9052356 6.89543 4.0097656 8 4.0097656 z M 8 9.0097656 C 11.9998 9.0077656 12 11.677734 12 11.677734 L 12 12.009766 L 4 12.009766 L 4 11.677734 C 4 11.677734 3.99985 9.0120656 8 9.0097656 z"/>
</svg>

<svg width="16" height="16" version="1.1" xmlns="http://www.w3.org/2000/svg">
  <defs>
    <style id="current-color-scheme" type="text/css">.ColorScheme-Text { color:#ebdbb2; } .ColorScheme-Highlight { color:#458588; }</style>
  </defs>
  <path class="ColorScheme-Text" d="m3 1.01c-1.108 0-2 0.892-2 2v10c0 1.108 0.892 2 2 2h10c1.108 0 2-0.892 2-2v-10c0-1.108-0.892-2-2-2h-10zm5 3c1.103 0 1.998 0.8948 1.998 1.998s-0.8948 1.996-1.998 1.996c-1.103 0-1.998-0.8929-1.998-1.996 0-1.103 0.8948-1.998 1.998-1.998zm0 4.494c2.03 0.002283 3.74 1.501 3.994 3.496h-7.99c0.254-1.995 1.966-3.494 3.996-3.496z" fill="currentColor"/>
</svg>
